elements/rpg-character/lib/hat/ninja.svg

<svg xmlns="http://www.w3.org/2000/svg" fill="none" width="113" height="142" viewBox="0 0 113 142"><path d="M13 42v20h5v15h10v5h15v5h20v-5h15v-5h10v-5h5V62h5V42h-5V32h-5V22h-5v-5H28v5h-5v10h-5v10h-5Zm17 18.5h1.5V59h43v1.5H76v8h-1.5V70h-43v-1.5H30v-8Z" fill="#2C2C2C" fill-rule="evenodd" clip-rule="evenodd"/><path d="M8 42v20h5v15h5v5h10v5h15v5h20v-5h15v-5h10v-5h5v-5h5V62h5V42h-5V32h-5V22h-5v-5h-5v-5H28v5h-5v5h-5v10h-5v10H8Zm5 0v20h5v15h10v5h15v5h20v-5h15v-5h10v-5h5V62h5V42h-5V32h-5V22h-5v-5H28v5h-5v10h-5v10h-5Z" fill="#000" fill-rule="evenodd" clip-rule="evenodd"/><path d="M18 47v15h-5V47h5Zm10 30H18V67h5v5h5v5h15v5h20v-5h15v-5h10V57h5V47h-5V37h-5V27h-5v-5H63v-5h20v5h5v10h5v15h5v15h-5v10h-5v5H78v5H63v5H43v-5H28v-5Zm-5-45h-5v5h5v-5Zm0-5v-5h5v5h-5Z" fill="#1B1B1C"/><path d="M23 42h-5V32h5V22h5v-5h15v5H33v5h-5v5h-5v10ZM13 62V52h5v10h5v15h-5V62h-5Z" fill="#525252"/><path d="M13 52V42h85v10H13Zm88.5 22h1.5v-1h1v-6h-1v-5h-5v8h1v6h1v-1h1.5v-1Zm-5 14H98v-1h1v-6h-1v-9h-5v12h1v6h1v-1h1.5v-1Z" fill="#A40000"/><path d="M99 84h-5v6h1v-1h1.5v-1H98v-1h1v-3Zm-1-2v-1h1v1h-1Zm5-14v-1h1v1h-1Zm-4 2v6h1v-1h1.5v-1h1.5v-1h1v-3h-5Zm-4 7h-2v-5h5v2h-2v1h-1v2Zm8-13v-2h-5v5h2v-2h1v-1h2Zm-5-22H75v2h18v4h-6v2h-4v2h15V42Z" fill="#860B0B"/><path d="M13 52V42h5v6h5v2h10v2H13Z" fill="#A72D2D"/><path d="M92 77v8h1v6h1v1h1v-1h1v-1h1.5v-1H99v-1h1v-8h-1v-3h2v-1h1.5v-1h1.5v-1h1v-8h-1v-5h-1" stroke="#000" stroke-width="2"/><path d="M98.5 70v6" stroke="#000"/></svg>

<svg width="113" height="142" viewBox="0 0 113 142" fill="none" xmlns="http://www.w3.org/2000/svg">
<path fill-rule="evenodd" clip-rule="evenodd" d="M13 42V62H18V77H28V82H43V87H63V82H78V77H88V72H93V62H98V42H93V32H88V22H83V17H28V22H23V32H18V42H13ZM30 60.5H31.5V59H74.5V60.5H76V68.5H74.5V70H31.5V68.5H30V60.5Z" fill="#2C2C2C"/>
<path fill-rule="evenodd" clip-rule="evenodd" d="M8 42V62H13V77H18V82H28V87H43V92H63V87H78V82H88V77H93V72H98V62H103V42H98V32H93V22H88V17H83V12H28V17H23V22H18V32H13V42H8ZM13 42V62H18V77H28V82H43V87H63V82H78V77H88V72H93V62H98V42H93V32H88V22H83V17H28V22H23V32H18V42H13Z" fill="black"/>
<path d="M18 47V62H13V47H18Z" fill="#1B1B1C"/>
<path d="M28 77H18V67H23V72H28V77H43V82H63V77H78V72H88V57H93V47H88V37H83V27H78V22H63V17H83V22H88V27V32H93V37V47H98V62H93V72H88V77H78V82H63V87H43V82H28V77Z" fill="#1B1B1C"/>
<path d="M23 32H18V37H23V32Z" fill="#1B1B1C"/>
<path d="M23 27V22H28V27H23Z" fill="#1B1B1C"/>
<path d="M23 42H18V32H23V22H28V17H43V22H33V27H28V32H23V42Z" fill="#525252"/>
<path d="M13 62V52H18V62H23V77H18V62H13Z" fill="#525252"/>
<path d="M13 52V42H98V52H13Z" fill="#A40000"/>
<path d="M101.5 74H103V73H104V67H103V62H98V70H99V76H100V75H101.5V74Z" fill="#A40000"/>
<path d="M96.5 88H98V87H99V81H98V72H93V84H94V90H95V89H96.5V88Z" fill="#A40000"/>
<path d="M99 84H94V90H95V89H96.5V88H98V87H99V84Z" fill="#860B0B"/>
<path d="M98 82V81H99V82H98Z" fill="#860B0B"/>
<path d="M103 68V67H104V68H103Z" fill="#860B0B"/>
<path d="M99 70V76H100V75H101.5V74H103V73H104V70H99Z" fill="#860B0B"/>
<path d="M95 77H93V72H98V74H96V75H95V77Z" fill="#860B0B"/>
<path d="M103 64V62H98V67H100V65H101V64H103Z" fill="#860B0B"/>
<path d="M98 42H93H75V44H93V48H87V50H83V52H98V42Z" fill="#860B0B"/>
<path d="M13 52V42H18V48H23V50H33V52H13Z" fill="#A72D2D"/>
<path d="M92 77V85H93V91H94V92H94.5H95V91H96V90H97.5V89H99V88H100V80H99V77H101V76H102.5V75H104V74H105V66H104V61H103" stroke="black" stroke-width="2"/>
<path d="M98.5 70V76" stroke="black"/>
</svg>
